X: 259
T: Ben Sana Gönül Vereli
C: Çorlulu Âşık
O: Turkey
F: http://compmusic.upf.edu/node/140
N: hicazkar--sarki--curcuna--ben_sana--corlulu_asik
N: makam= hicazkar
N: form= sarki
N: usul= curcuna = 10/8
M: 10/8
L: 1/16
K: C _1/4B _7/8e _7/8A ^f
Q: 1/4=198
%%MIDI tuningsystem comma53
g8-g2g2 f2e2 d2e2  | c8-c2c2 B2c4z2  | \
w:  ARANAĞME  |   | 
c2B2 c2d2 B2c2 d2e2 d2e2  | 
w:   | 
f2g2 a2{b}a2 g2g2 f2g4z2  | =f8-=f2f4e2 d2e2  | \
w:   |   | 
g8-g2g2 f2e2 d2c2  | 
w:   | 
B2c2 e2d2 c2B4A4G2  | G18z2  | g8-g2g2 f2e2 d2e2  | \
w:   |   |  ARANAĞME  | 
c8-c2c2 B2c4z2  | 
w:   | 
c2B2 c2d2 B2c2 d2e2 d2e2  | f2g2 a2{b}a2 g2g2 f2g4z2  | \
w:   |   | 
=f8-=f2f4e2 d2e2  | 
w:   | 
g8-g2g2 f2e2 d2c2  | B2c2 e2d2 c2B4A4G2  | \
w:   |   | 
G18z2  | f6g4g4g6  | 
w:   |  Ben  sa na  gö  | 
a6g4f2 e2d4z2  | d8-d2e8z2  | f4 g2e2 f2g8z2  | \
w:  nül  ve re *  li   |  bak  ne   |  hâl  ol *  *  dum   | 
g4 f2g4a4g4f2  | 
w:  bak  *  *  ne   | 
f2g2 f2e2 d2d8z2  | z4 e2d2 c2B2 A2G4z2  | \
w:  hâl  *  ol *  *  dum    |  SAZ  | 
f6g4g4g6  | a6g4f2 e2d4z2  | 
w:  Ben  sa na  gö  |  nül  ve re *  li   | 
d8-d2e8z2  | f4 g2e2 f2g8z2  | g4 f2g4a4g4f2  | \
w:  bak  ne   |  hâl  ol *  *  dum   |  bak  *  *  ne   | 
f2g2 f2e2 d2d8z2  | 
w:  hâl  *  ol *  *  dum    | 
z4 e2d2 c2B2 c2d4z2  | z4 d2g4g4g4=f2  | \
w:  SAZ  |  A çıl mış  gon  | 
=f6g2 a2g2 f2e2 d2c2  | 
w:  ca  gül  *  i *  ken   | 
d8-d2e8d2  | d2e2 d2c2 B2B8z2  | c4 B2c4_3/4d4c4B2  | \
w:  sa ra  |  rıp  *  sol *  *  dum   |  sa *  *  ra  | 
B2c2 B2A2 G2G8z2  | 
w:  rıp  *  sol *  *  dum    | 
z4 a2g2 f2e2 f2g4z2  | z4 d2g4g4g4=f2  | \
w:  SAZ  |  A çıl mış  gon  | 
=f6g2 a2g2 f2e2 d2c2  | 
w:  ca  gül  *  i *  ken   | 
d8-d2e8d2  | d2e2 d2c2 B2B8z2  | c4 B2c4_3/4d4c4B2  | \
w:  sa ra  |  rıp  *  sol *  *  dum   |  sa *  *  ra  | 
B2c2 B2A2 G2G8z2  | 
w:  rıp  *  sol *  *  dum    | 
z4 _b2=a2 g2f2 g2a4z2  | g6=a4a4a6  | \
w:  SAZ  |  Bir  gü ze le   | 
=a6_b4a2 g2f4z2  | g8-g2=a8-=a2  | 
w:  gö nül  ve *  rip   |  aş kı  | 
_b4 =a2g2 f2f8z2  | g4 f2g4a4g4f2  | \
w:  na  yan *  *  dım   |  aş *  *  kı  | 
f2g2 f2e2 d2d8z2  | z4 _b2=a2 g2f2 g2a4z2  | 
w:  na  *  yan *  *  dım    |  SAZ  | 
g6=a4a4a6  | =a6_b4a2 g2f4z2  | g8-g2=a8-=a2  | \
w:  Bir  gü ze le   |  gö nül  ve *  rip   |  aş kı  | 
_b4 =a2g2 f2f8z2  | g4 f2g4a4g4f2  | 
w:  na  yan *  *  dım   |  aş *  *  kı  | 
f2g2 f2e2 d2d8z2  | z4 e2d2 c2B2 c2d4z2  | \
w:  na  *  yan *  *  dım    |  SAZ  | 
c6g4g4g4=f2  | =f6g2 a2g2 f2e2 d2c2  | 
w:  Ah  e fen dim   |  bu  ha *  li *  mi   | 
d8-d2e8d2  | d2e2 d2c2 B2B8z2  | c4 B2c4_3/4d4c4B2  | \
w:  ki me   |  söy *  le *  *  yim   |  ki *  *  me   | 
B2c2 B2A2 G2G8z2  | 
w:  söy *  le *  *  yim    | 
z4 e2d2 c2B2 c2d4z2  | c6g4g4g4=f2  | \
w:  SAZ  |  Dün ya  ba na   | 
=f6g2 a2g2 f2e2 d2c2  | 
w:  ha ram  *  ol *  du   | 
d8-d2e8d2  | d2e2 d2c2 B2B8z2  | c4 B2c4_3/4d4c4B2  | \
w:  sen siz   |  ney *  le *  *  yim   |  sen *  *  siz   | 
B2c2 B2A2 G2G8z2  | 
w:  ney *  le *  *  yim    | 
z4 e2d2 c2B2 A2G4z2  | |


